docs/img/aslogo.svg

<svg width="250" height="70" viewBox="0 0 250 70" fill="none" xmlns="http://www.w3.org/2000/svg">
<path d="M22.3416 50.2032H10.0586L7.29999 60.775H3.31305L14.5087 20.2682H17.8916L29.1073 60.775H25.1405L22.3416 50.2032ZM11.2265 45.8075H21.1939L16.2001 26.8617L11.2265 45.8075Z" fill="black"/>
<path d="M41.6924 42.7194C38.3767 41.4026 35.9603 39.789 34.4434 37.8786C32.9399 35.9497 32.1882 33.5757 32.1882 30.7566C32.1882 27.5665 33.1077 24.9328 34.9468 22.8555C36.7993 20.7597 39.2022 19.7118 42.1555 19.7118C44.1691 19.7118 45.9612 20.2497 47.5318 21.3254C49.1159 22.4011 50.3375 23.8849 51.1966 25.7767C52.0692 27.6685 52.5055 29.7365 52.5055 31.9807H48.6192C48.6192 29.5325 48.0554 27.6129 46.9278 26.2218C45.8001 24.8122 44.2094 24.1075 42.1555 24.1075C40.2493 24.1075 38.7592 24.6917 37.6853 25.8602C36.6248 27.0101 36.0946 28.6144 36.0946 30.6731C36.0946 32.3238 36.598 33.7241 37.6048 34.874C38.625 36.0054 40.35 37.044 42.7797 37.9899C45.2229 38.9358 47.1291 39.9837 48.4984 41.1336C49.8811 42.265 50.9013 43.5911 51.5591 45.112C52.2303 46.6328 52.5659 48.4226 52.5659 50.4814C52.5659 53.7642 51.6396 56.3979 49.7871 58.3824C47.9346 60.3484 45.4578 61.3314 42.3569 61.3314C40.3433 61.3314 38.4639 60.8028 36.7188 59.7456C34.9737 58.6699 33.6245 57.2047 32.6714 55.35C31.7318 53.4953 31.2619 51.3902 31.2619 49.0347H35.1482C35.1482 51.4829 35.7992 53.4211 37.1014 54.8492C38.4169 56.2588 40.1688 56.9636 42.3569 56.9636C44.3973 56.9636 45.9612 56.3886 47.0486 55.2387C48.1359 54.0888 48.6796 52.5215 48.6796 50.537C48.6796 48.5525 48.1762 47.0223 47.1694 45.9466C46.1626 44.8523 44.3369 43.7766 41.6924 42.7194Z" fill="black"/>
<path d="M64.9898 41.9404L61.4056 47.0873V60.775H57.5395V20.2682H61.4056V40.299L74.4336 20.2682H79.1052L67.5672 38.1568L80.0113 60.775H75.38L64.9898 41.9404Z" fill="black"/>
<path d="M105.302 41.8292C105.302 45.7982 104.819 49.2665 103.852 52.2341C102.886 55.183 101.517 57.4365 99.7447 58.9945C97.9727 60.5524 95.9054 61.3314 93.5428 61.3314C91.2338 61.3314 89.1867 60.5524 87.4013 58.9945C85.6159 57.418 84.2265 55.183 83.2331 52.2897C82.2531 49.3778 81.7497 46.0115 81.7229 42.1908V39.2697C81.7229 35.3748 82.2129 31.9343 83.1928 28.9482C84.1728 25.9622 85.5555 23.6809 87.3409 22.1044C89.1397 20.5093 91.1936 19.7118 93.5025 19.7118C95.8517 19.7118 97.919 20.5001 99.7044 22.0766C101.503 23.6345 102.886 25.9065 103.852 28.8926C104.819 31.8601 105.302 35.3191 105.302 39.2697V41.8292ZM101.456 39.214C101.456 34.4103 100.758 30.7288 99.3621 28.1693C97.966 25.5912 96.0128 24.3022 93.5025 24.3022C91.0593 24.3022 89.133 25.5912 87.7234 28.1693C86.3273 30.7288 85.6092 34.2898 85.5689 38.8524V41.8292C85.5689 46.4845 86.2736 50.1475 87.6832 52.8183C89.1061 55.4705 91.0593 56.7966 93.5428 56.7966C96.0396 56.7966 97.9727 55.5447 99.3419 53.0409C100.711 50.5185 101.416 46.9111 101.456 42.2187V39.214Z" fill="black"/>
<path d="M116.095 20.2682L125.68 53.3191L135.265 20.2682H140.279V60.775H136.412V45.0007L136.775 27.9745L127.15 60.775H124.19L114.585 28.058L114.968 45.0007V60.775H111.101V20.2682H116.095Z" fill="black"/>
<path d="M163.657 50.2032H151.374L148.615 60.775H144.628L155.824 20.2682H159.206L170.422 60.775H166.455L163.657 50.2032ZM152.541 45.8075H162.509L157.515 26.8617L152.541 45.8075Z" fill="black"/>
<path d="M185.122 44.3887H178.235V60.775H174.349V20.2682H184.054C187.357 20.2682 189.894 21.3069 191.666 23.3841C193.451 25.4614 194.344 28.4846 194.344 32.4536C194.344 34.976 193.847 37.1739 192.854 39.0471C191.874 40.9204 190.505 42.3207 188.746 43.248L195.633 60.4411V60.775H191.485L185.122 44.3887ZM178.235 40.0208H184.175C186.095 40.0208 187.618 39.3346 188.746 37.9621C189.887 36.5896 190.458 34.7535 190.458 32.4536C190.458 29.9498 189.914 28.0302 188.827 26.6948C187.753 25.3594 186.196 24.6824 184.155 24.6639H178.235V40.0208Z" fill="black"/>
<path d="M222.333 41.8292C222.333 45.7982 221.85 49.2665 220.883 52.2341C219.917 55.183 218.547 57.4365 216.775 58.9945C215.004 60.5524 212.936 61.3314 210.574 61.3314C208.265 61.3314 206.217 60.5524 204.432 58.9945C202.647 57.418 201.257 55.183 200.264 52.2897C199.284 49.3778 198.781 46.0115 198.754 42.1908V39.2697C198.754 35.3748 199.244 31.9343 200.224 28.9482C201.204 25.9622 202.586 23.6809 204.372 22.1044C206.17 20.5093 208.224 19.7118 210.533 19.7118C212.883 19.7118 214.95 20.5001 216.735 22.0766C218.534 23.6345 219.917 25.9065 220.883 28.8926C221.85 31.8601 222.333 35.3191 222.333 39.2697V41.8292ZM218.487 39.214C218.487 34.4103 217.789 30.7288 216.393 28.1693C214.997 25.5912 213.044 24.3022 210.533 24.3022C208.09 24.3022 206.164 25.5912 204.754 28.1693C203.358 30.7288 202.64 34.2898 202.6 38.8524V41.8292C202.6 46.4845 203.304 50.1475 204.714 52.8183C206.137 55.4705 208.09 56.7966 210.574 56.7966C213.07 56.7966 215.004 55.5447 216.373 53.0409C217.742 50.5185 218.447 46.9111 218.487 42.2187V39.214Z" fill="black"/>
<path d="M237.395 53.6807L245.771 20.2682H250L239.127 60.775H235.703L224.85 20.2682H229.058L237.395 53.6807Z" fill="black"/>
<path d="M92.872 57.7734C91.9418 56.3997 90.3909 55.5769 88.7319 55.5769H43.1861C41.519 55.5769 39.9616 56.4078 39.0332 57.7925L32.3338 67.7844C31.4054 69.1691 29.848 70 28.1809 70H9.99009C5.87169 70 3.51928 65.2999 5.9877 62.0032L50.9133 2.00318C51.8574 0.742278 53.3405 0 54.9157 0H76.8025C78.373 0 79.8523 0.737915 80.7969 1.99258L125.971 61.9926C128.452 65.2876 126.101 70 121.977 70H103.804C102.145 70 100.594 69.1772 99.6643 67.8036L92.872 57.7734ZM53.5471 36.1169C51.3276 39.4393 53.7091 43.8942 57.7047 43.8942H74.1411C78.1482 43.8942 80.5274 39.4164 78.2846 36.0957L70.0212 23.8609C68.0326 20.9166 63.6937 20.9276 61.7201 23.8821L53.5471 36.1169Z" fill="#5A37A5" fill-opacity="0.76"/>
<path d="M210.086 49.9992C210.086 47.4094 208.146 45.4289 204.264 44.0578C200.383 42.6562 193.396 41.1937 183.305 39.6703C173.213 38.1164 165.224 36.5929 159.337 35.1C143.294 31.0172 135.272 25.5176 135.272 18.6012C135.272 15.0059 137.407 11.8066 141.676 9.00351C146.011 6.16992 152.189 3.96094 160.21 2.37656C168.296 0.792187 177.353 0 187.38 0C197.472 0 206.464 0.868359 214.356 2.60508C222.248 4.31133 228.361 6.73359 232.696 9.87187C235.243 11.6894 237.053 13.65 238.125 15.7537C239.379 18.214 237.055 20.5664 234.294 20.5664H215.183C212.422 20.5664 210.222 18.0467 208.268 16.0947C207.264 15.091 205.865 14.2203 204.07 13.4824C199.995 11.7762 194.27 10.923 186.895 10.923C179.779 10.923 174.248 11.6391 170.302 13.0711C166.356 14.4726 164.383 16.3312 164.383 18.6469C164.383 20.8101 166.679 22.623 171.272 24.0855C175.93 25.548 182.755 26.9191 191.747 28.1988C208.307 30.5449 220.372 33.4547 227.941 36.9281C235.51 40.4015 239.294 44.7281 239.294 49.9078C239.294 55.6664 234.669 60.191 225.418 63.4816C216.167 66.7418 203.714 69.9621 188.059 69.9621C177.191 69.9621 162.203 70.3898 153.051 68.3718C146.161 66.8527 143.502 65.4487 138.78 62.1885C136.195 60.3792 134.054 57.0773 132.66 53.7624C131.278 50.4758 134.53 48.0308 137.823 49.398L145.613 52.6326C145.977 52.7838 146.317 52.9805 146.649 53.1939C153.384 57.5252 169.884 57.5402 188.059 57.5402C194.981 57.5402 200.383 56.8851 204.264 55.575C208.146 54.2343 210.086 52.3758 210.086 49.9992Z" fill="#365092"/>
</svg>

<svg width="250" height="70" fill="none" xmlns="http://www.w3.org/2000/svg"><path d="M22.342 50.203H10.059L7.3 60.775H3.313L14.51 20.268h3.383l11.215 40.507h-3.966l-2.8-10.572zm-11.115-4.396h9.967L16.2 26.862l-4.973 18.945zm30.465-3.087c-3.315-1.317-5.732-2.931-7.249-4.841-1.503-1.93-2.255-4.303-2.255-7.122 0-3.19.92-5.824 2.759-7.902 1.852-2.095 4.255-3.143 7.209-3.143 2.013 0 3.805.538 5.376 1.613 1.584 1.076 2.806 2.56 3.665 4.452.872 1.892 1.308 3.96 1.308 6.204H48.62c0-2.449-.564-4.368-1.691-5.76-1.128-1.409-2.719-2.113-4.772-2.113-1.907 0-3.397.584-4.47 1.752-1.061 1.15-1.591 2.754-1.591 4.813 0 1.65.503 3.051 1.51 4.201 1.02 1.131 2.745 2.17 5.175 3.116 2.443.946 4.35 1.994 5.718 3.144 1.383 1.131 2.403 2.457 3.061 3.978.671 1.52 1.007 3.31 1.007 5.37 0 3.282-.926 5.916-2.779 7.9-1.852 1.966-4.33 2.95-7.43 2.95-2.014 0-3.893-.53-5.638-1.586-1.745-1.076-3.095-2.541-4.048-4.396-.94-1.855-1.41-3.96-1.41-6.315h3.887c0 2.448.651 4.386 1.953 5.814 1.316 1.41 3.068 2.115 5.256 2.115 2.04 0 3.604-.575 4.692-1.725 1.087-1.15 1.63-2.717 1.63-4.702 0-1.984-.503-3.515-1.51-4.59-1.006-1.095-2.832-2.17-5.477-3.228zm23.298-.78l-3.584 5.147v13.688h-3.867V20.268h3.867V40.3l13.028-20.03h4.671L67.567 38.156l12.444 22.618H75.38L64.99 41.94zm40.312-.11c0 3.968-.483 7.437-1.45 10.404-.966 2.949-2.335 5.203-4.107 6.76-1.772 1.558-3.84 2.337-6.202 2.337-2.31 0-4.356-.779-6.142-2.337-1.785-1.576-3.174-3.811-4.168-6.704-.98-2.912-1.483-6.279-1.51-10.1v-2.92c0-3.895.49-7.336 1.47-10.322.98-2.986 2.362-5.267 4.148-6.844 1.799-1.595 3.853-2.392 6.162-2.392 2.349 0 4.416.788 6.201 2.365 1.799 1.557 3.182 3.83 4.148 6.816.967 2.967 1.45 6.426 1.45 10.377v2.56zm-3.846-2.616c0-4.804-.698-8.485-2.094-11.045-1.396-2.578-3.35-3.867-5.86-3.867-2.443 0-4.369 1.29-5.779 3.867-1.396 2.56-2.114 6.12-2.154 10.683v2.977c0 4.655.705 8.319 2.114 10.99 1.423 2.651 3.376 3.978 5.86 3.978 2.497 0 4.43-1.252 5.799-3.756 1.369-2.522 2.074-6.13 2.114-10.822v-3.005zm14.639-18.946l9.585 33.051 9.585-33.05h5.014v40.506h-3.867V45.001l.363-17.026-9.625 32.8h-2.96l-9.605-32.717.383 16.943v15.774h-3.867V20.268h4.994zm47.562 29.935h-12.283l-2.759 10.572h-3.987l11.196-40.507h3.382l11.216 40.507h-3.967l-2.798-10.572zm-11.116-4.396h9.968l-4.994-18.945-4.974 18.945zm32.581-1.418h-6.887v16.386h-3.886V20.268h9.705c3.303 0 5.84 1.039 7.612 3.116 1.785 2.077 2.678 5.1 2.678 9.07 0 2.522-.497 4.72-1.49 6.593-.98 1.873-2.349 3.274-4.108 4.201l6.887 17.193v.334h-4.148l-6.363-16.386zm-6.887-4.368h5.94c1.92 0 3.443-.686 4.571-2.059 1.141-1.372 1.712-3.209 1.712-5.508 0-2.504-.544-4.424-1.631-5.76-1.074-1.335-2.631-2.012-4.672-2.03h-5.92V40.02zm44.098 1.809c0 3.968-.483 7.437-1.45 10.404-.966 2.949-2.336 5.203-4.108 6.76-1.771 1.558-3.839 2.337-6.201 2.337-2.309 0-4.357-.779-6.142-2.337-1.785-1.576-3.175-3.811-4.168-6.704-.98-2.912-1.483-6.279-1.51-10.1v-2.92c0-3.895.49-7.336 1.47-10.322.98-2.986 2.362-5.267 4.148-6.844 1.798-1.595 3.852-2.392 6.161-2.392 2.35 0 4.417.788 6.202 2.365 1.799 1.557 3.182 3.83 4.148 6.816.967 2.967 1.45 6.426 1.45 10.377v2.56zm-3.846-2.616c0-4.804-.698-8.485-2.094-11.045-1.396-2.578-3.349-3.867-5.86-3.867-2.443 0-4.369 1.29-5.779 3.867-1.396 2.56-2.114 6.12-2.154 10.683v2.977c0 4.655.704 8.319 2.114 10.99 1.423 2.651 3.376 3.978 5.86 3.978 2.496 0 4.43-1.252 5.799-3.756 1.369-2.522 2.074-6.13 2.114-10.822v-3.005zm18.908 14.466l8.376-33.412H250l-10.873 40.507h-3.424L224.85 20.268h4.208l8.337 33.413z" fill="#000"/><path d="M92.872 57.773a5 5 0 00-4.14-2.196H43.186a5 5 0 00-4.153 2.215l-6.7 9.992A5 5 0 0128.182 70H9.99c-4.12 0-6.472-4.7-4.003-7.997l44.925-60A5 5 0 0154.916 0h21.886a5 5 0 013.995 1.993l45.174 60c2.481 3.295.13 8.007-3.994 8.007h-18.173a4.999 4.999 0 01-4.14-2.196l-6.792-10.03zM53.547 36.117c-2.22 3.322.162 7.777 4.158 7.777H74.14c4.007 0 6.386-4.478 4.144-7.798L70.02 23.86c-1.988-2.944-6.327-2.933-8.3.021l-8.174 12.235z" fill="#5A37A5" fill-opacity=".76"/><path d="M210.086 50c0-2.59-1.94-4.571-5.822-5.942-3.881-1.402-10.868-2.864-20.959-4.388-10.092-1.554-18.081-3.077-23.968-4.57-16.043-4.083-24.065-9.582-24.065-16.499 0-3.595 2.135-6.794 6.404-9.597 4.335-2.834 10.513-5.043 18.534-6.627C168.296.792 177.353 0 187.38 0c10.092 0 19.084.868 26.976 2.605 7.892 1.706 14.005 4.129 18.34 7.267 2.547 1.817 4.357 3.778 5.429 5.882 1.254 2.46-1.07 4.812-3.831 4.812h-19.111c-2.761 0-4.961-2.52-6.915-4.471-1.004-1.004-2.403-1.875-4.198-2.613-4.075-1.706-9.8-2.559-17.175-2.559-7.116 0-12.647.716-16.593 2.148-3.946 1.402-5.919 3.26-5.919 5.576 0 2.163 2.296 3.976 6.889 5.439 4.658 1.462 11.483 2.833 20.475 4.113 16.56 2.346 28.625 5.256 36.194 8.73 7.569 3.472 11.353 7.8 11.353 12.979 0 5.758-4.625 10.283-13.876 13.574-9.251 3.26-21.704 6.48-37.359 6.48-10.868 0-25.856.428-35.008-1.59-6.89-1.52-9.549-2.923-14.271-6.184-2.585-1.809-4.726-5.11-6.12-8.426-1.382-3.286 1.87-5.731 5.163-4.364l7.79 3.235a6.63 6.63 0 011.036.56c6.735 4.332 23.235 4.347 41.41 4.347 6.922 0 12.324-.655 16.205-1.965 3.882-1.34 5.822-3.2 5.822-5.576z" fill="#365092"/></svg>
